modules/feathericon/icons/sunny-o.svg

<?xml version="1.0" encoding="UTF-8"?>
<svg width="24px" height="24px" viewBox="0 0 24 24" version="1.1" xmlns="http://www.w3.org/2000/svg" xmlns:xlink="http://www.w3.org/1999/xlink">
    <!-- Generator: sketchtool 52.2 (67145) - http://www.bohemiancoding.com/sketch -->
    <title>sunny-o</title>
    <desc>Created with sketchtool.</desc>
    <g id="weather" stroke="none" stroke-width="1" fill="none" fill-rule="evenodd">
        <g id="sunny-o" fill="#000000" fill-rule="nonzero">
            <path d="M12,18 C8.6862915,18 6,15.3137085 6,12 C6,8.6862915 8.6862915,6 12,6 C15.3137085,6 18,8.6862915 18,12 C18,15.3137085 15.3137085,18 12,18 Z M12,16 C14.209139,16 16,14.209139 16,12 C16,9.790861 14.209139,8 12,8 C9.790861,8 8,9.790861 8,12 C8,14.209139 9.790861,16 12,16 Z M11,2 L13,2 L13,5 L11,5 L11,2 Z M2,11 L5,11 L5,13 L2,13 L2,11 Z M19,11 L22,11 L22,13 L19,13 L19,11 Z M11,19 L13,19 L13,22 L11,22 L11,19 Z M18.6213203,4 L20.0355339,5.41421356 L17.9142136,7.53553391 L16.5,6.12132034 L18.6213203,4 Z M16.5,17.4142136 L17.9142136,16 L20.0355339,18.1213203 L18.6213203,19.5355339 L16.5,17.4142136 Z M6.12132034,16 L7.53553391,17.4142136 L5.41421356,19.5355339 L4,18.1213203 L6.12132034,16 Z M4,5.41421356 L5.41421356,4 L7.53553391,6.12132034 L6.12132034,7.53553391 L4,5.41421356 Z" id="Shape"></path>
        </g>
    </g>
</svg>

<svg width="24" height="24" viewBox="0 0 24 24" xmlns="http://www.w3.org/2000/svg"><path d="M12 18a6 6 0 1 1 0-12 6 6 0 0 1 0 12zm0-2a4 4 0 1 0 0-8 4 4 0 0 0 0 8zM11 2h2v3h-2V2zm-9 9h3v2H2v-2zm17 0h3v2h-3v-2zm-8 8h2v3h-2v-3zm7.621-15l1.415 1.414-2.122 2.122L16.5 6.12 18.621 4zM16.5 17.414L17.914 16l2.122 2.121-1.415 1.415-2.121-2.122zM6.121 16l1.415 1.414-2.122 2.122L4 18.12 6.121 16zM4 5.414L5.414 4l2.122 2.121L6.12 7.536 4 5.414z" fill="#000" fill-rule="nonzero"/></svg>
